openframe-frontend-core/src/components/icons-v2/brand-logos/tiktok.svg

<svg width="24" height="24" viewBox="0 0 24 24" fill="none" xmlns="http://www.w3.org/2000/svg">
<path d="M5.875 15.9995C5.87522 14.1119 7.14429 12.5242 8.875 12.0342V11.2563C6.72523 11.7643 5.12523 13.6946 5.125 15.9995C5.125 18.6919 7.30761 20.8745 10 20.8745C12.6924 20.8745 14.875 18.6919 14.875 15.9995V7.74512C14.8751 7.32604 15.1084 6.94141 15.48 6.74756C15.8513 6.55402 16.2995 6.5829 16.6431 6.82227C17.3011 7.28124 18.0584 7.60436 18.8755 7.7627V6.99951C16.9483 6.56792 15.4328 5.0521 15.001 3.125H14.125V15.9995C14.125 18.2777 12.2782 20.1245 10 20.1245C7.72183 20.1245 5.875 18.2777 5.875 15.9995ZM17.125 15.9995C17.125 19.9345 13.935 23.1245 10 23.1245C6.06497 23.1245 2.875 19.9345 2.875 15.9995C2.87526 12.0647 6.06513 8.87451 10 8.87451C10.6212 8.87451 11.1247 9.37842 11.125 9.99951V12.9995C11.125 13.6208 10.6213 14.1245 10 14.1245C8.96463 14.1245 8.12526 14.9642 8.125 15.9995C8.125 17.035 8.96447 17.8745 10 17.8745C11.0355 17.8745 11.875 17.035 11.875 15.9995V2L11.8809 1.88428C11.9388 1.31732 12.4178 0.875 13 0.875H16C16.6213 0.875 17.125 1.37868 17.125 2C17.125 3.58782 18.4127 4.87549 20.0005 4.87549C20.6216 4.87575 21.1255 5.37933 21.1255 6.00049V9.00049C21.1252 9.62142 20.6214 10.1252 20.0005 10.1255C18.9888 10.1255 18.0194 9.93815 17.125 9.59961V15.9995Z" fill="#888888"/>
</svg>

<svg xmlns="http://www.w3.org/2000/svg" width="24" height="24" fill="none" viewBox="0 0 24 24">
  <path fill="#888" d="M5.875 16a4.123 4.123 0 0 1 3-3.966v-.778A4.876 4.876 0 0 0 10 20.875a4.875 4.875 0 0 0 4.875-4.876V7.745a1.126 1.126 0 0 1 1.768-.923 5.836 5.836 0 0 0 2.232.94V7a5.129 5.129 0 0 1-3.874-3.875h-.876v12.874a4.125 4.125 0 1 1-8.25 0Zm11.25 0A7.125 7.125 0 1 1 10 8.874c.621 0 1.125.503 1.125 1.125v3c0 .62-.504 1.124-1.125 1.124A1.875 1.875 0 1 0 11.875 16V2l.006-.116A1.125 1.125 0 0 1 13 .875h3c.621 0 1.125.504 1.125 1.125A2.876 2.876 0 0 0 20 4.875c.622 0 1.125.504 1.125 1.125v3c0 .621-.504 1.125-1.125 1.126a8.108 8.108 0 0 1-2.875-.526V16Z"/>
</svg>
